X:240
T:Polloness ur Matthias Silvius Svenonis notbok
T:(SmM I:240)
R:Polska
O:Kalmar, Småland
S:Matthias Silvius Svenonis
B:Småländsk Musiktradition
N:Småländsk Musiktradition, I:240
Z:Till abc Jonas Brunskog
M:3/4
L:1/8
K:Am
A/B/c/d/ e2 e2|ab ^g2 (^fe)|a>b e>^f =ga|^f>e e4:|
|:e>e fg fe|d>d ef ed|c>c de dc|B>A A4:|

